X: 15614
T: Goat's Path, The
R: reel
M: 4/4
K: Gmajor
~G3B d3z|GBdB cBAD|~E3D EFGD|G2BG cBAB|
~G3B d3z|GBdB cBAG|cBcD ~E3D|DEGA B~G3:|
c zcd e~g3|e~g3 ged2|cBcd ~e3d|edBG AGEG|
cBcd e~g3|e~g3 gedz|cBcD ~E3D|DEGA B~G3:|

